X:100
T:Traveller, The
M:C|
L:1/8
R:Reel (Key of G)
K:G
"G"G2BG dGBG | "C"ABcd cBAG | "G"(3Bcd gd egdB | "D"cBAG FADF |
"G"G2BG dGBG | "C"ABcd cBAG | "G"(3Bcd gd egdB |1 "D"cAFA "G"G3D :|2 "D"cAFA "G"G3d |:
"G"g2dg egdg | "C"~g2bg agef | "G"g2dg egdB | "D"cBAG FAD2 |
"G"g2dg egdg | "C"~g2bg agef | "G"~g3a gfed |1 "D"egfa "G"gdef :|2 "D"egfa "G"gedB |]
